bundles/org.openhab.ui.habpanel/web/assets/icons/smarthome-set/bulb.svg

<?xml version="1.0" encoding="UTF-8" standalone="no"?>
<svg width="32px" height="32px" viewBox="0 0 32 32" version="1.1" xmlns="http://www.w3.org/2000/svg" xmlns:xlink="http://www.w3.org/1999/xlink" xmlns:sketch="http://www.bohemiancoding.com/sketch/ns">
    <!-- Generator: Sketch 3.3.2 (12043) - http://www.bohemiancoding.com/sketch -->
    <title>bulb</title>
    <desc>Created with Sketch.</desc>
    <defs></defs>
    <g id="flatten" stroke="none" stroke-width="1" fill="none" fill-rule="evenodd" sketch:type="MSPage">
        <g id="z-copy" sketch:type="MSArtboardGroup" transform="translate(-4.000000, -4.000000)" fill="#000000">
            <g id="bulb" sketch:type="MSLayerGroup" transform="translate(4.000000, 4.000000)">
                <path d="M8.04893656,20.9879868 C5.56555168,18.7894577 4,15.5775559 4,12 C4,5.372583 9.372583,0 16,0 C22.627417,0 28,5.372583 28,12 C28,15.5351969 26.4713018,18.7133471 24.0388879,20.9094684 C22.8714144,21.9635298 22.3935361,26.314352 21.2275404,29.0298342 C20.2686082,31.263087 18.8677424,32.0416197 16.0327148,31.9748535 C13.2665152,31.9097083 11.7263284,31.2123902 10.7692871,29.0864258 C9.55282281,26.3841811 9.23382169,22.0369601 8.04893656,20.9879868 L8.04893656,20.9879868 Z M6,12 C6,6.4771525 10.4771525,2 16,2 C21.5228475,2 26,6.4771525 26,12 C26,13.4039787 25.7097455,14.7600975 25.1685764,16 L6.83144854,16 C6.29038009,14.7602736 6,13.4041311 6,12 L6,12 Z M10.4462142,21 C10.1610402,20.3571063 9.8320342,19.8954144 9.37465546,19.4904991 C8.55828153,18.7677671 7.87243458,17.9262861 7.33680389,17 L7.33680389,17 L24.66319,17 C24.1437667,17.8981932 23.482983,18.7168207 22.6986172,19.4249906 C22.2402726,19.8388101 21.9047051,20.3213336 21.6043283,21 L10.4462142,21 L10.4462142,21 L10.4462142,21 Z M11.1018052,23 C11.1720882,23.2658547 11.2440709,23.5508756 11.3192464,23.8572605 C11.3437376,23.9570767 11.5960867,25.004759 11.7045027,25.4435106 L11.7045027,25.4435106 L20.8873043,23.1382947 C20.9002539,23.0916455 20.9131357,23.0455506 20.9259569,23 L11.1018052,23 L11.1018052,23 L11.1018052,23 Z M12.5749549,28.2249957 C12.3621958,27.7446626 12.1664961,27.1655223 11.9572719,26.4110846 L11.9572719,26.4110846 L20.5928403,24.2432441 C20.4835056,24.6645271 20.3300954,25.2573517 20.2770527,25.4580134 C20.1911713,25.7829042 20.1100328,26.0797864 20.0319804,26.353012 L12.5749542,28.2249958 L12.5749549,28.2249957 L12.5749549,28.2249957 Z M13.1241608,29.1181532 C13.6755154,29.7210257 14.4995511,29.9381923 16.0798027,29.9754079 C18.1496378,30.0241534 18.7757989,29.6706585 19.3897941,28.2407279 C19.4897734,28.0078865 19.586616,27.7549737 19.6843919,27.4712975 L13.1241608,29.1181532 L13.1241608,29.1181532 L13.1241608,29.1181532 Z M8.49999999,12.0473103 C8,12.0473103 8.02221433,11.3092774 8.06530214,10.9730396 C8.52717694,7.36877756 11.387523,4.51476445 14.9947964,4.06254437 C15.2453908,4.031129 16.0447247,4.00000003 16.0447247,4.50000001 C16.0447247,5 14.9166805,5.08331953 14.9166805,5.08331953 C11.918172,5.5491681 9.5491681,7.91817199 9.08331953,10.9166805 C9.08331953,10.9166805 8.99999997,12.0473103 8.49999999,12.0473103 L8.49999999,12.0473103 Z" sketch:type="MSShapeGroup"></path>
            </g>
        </g>
    </g>
</svg>

<svg width="32" height="32" xmlns="http://www.w3.org/2000/svg"><path d="M8.049 20.988A11.97 11.97 0 0 1 4 12C4 5.373 9.373 0 16 0s12 5.373 12 12a11.97 11.97 0 0 1-3.961 8.91c-1.168 1.054-1.645 5.404-2.811 8.12-.96 2.233-2.36 3.012-5.195 2.945-2.766-.065-4.307-.763-5.264-2.889-1.216-2.702-1.535-7.049-2.72-8.098ZM6 12C6 6.477 10.477 2 16 2s10 4.477 10 10c0 1.404-.29 2.76-.831 4H6.83A9.984 9.984 0 0 1 6 12Zm4.446 9c-.285-.643-.614-1.105-1.071-1.51A10.036 10.036 0 0 1 7.337 17h17.326c-.52.898-1.18 1.717-1.964 2.425-.459.414-.794.896-1.095 1.575H10.446Zm.656 2c.07.266.142.55.217.857.025.1.277 1.148.386 1.587l9.182-2.306.039-.138h-9.824Zm1.473 5.225c-.213-.48-.409-1.06-.618-1.814l8.636-2.168-.316 1.215a47.02 47.02 0 0 1-.245.895l-7.457 1.872Zm.55.893c.55.603 1.375.82 2.955.857 2.07.05 2.696-.304 3.31-1.734.1-.233.197-.486.294-.77l-6.56 1.647ZM8.5 12.048c-.5 0-.478-.739-.435-1.075a8.004 8.004 0 0 1 6.93-6.91c.25-.032 1.05-.063 1.05.437s-1.128.583-1.128.583a7.005 7.005 0 0 0-5.834 5.834S9 12.047 8.5 12.047Z" fill="#000" fill-rule="evenodd"/></svg>
